dist/assets/images/basket/deliveryIco.svg

<svg width="64" height="64" viewBox="0 0 64 64" fill="none" xmlns="http://www.w3.org/2000/svg">
<path d="M59.5197 35.8672L57.8624 29.2379C58.3155 29.1416 58.6555 28.7396 58.6555 28.258V27.1891C58.6555 24.8684 56.7674 22.9804 54.4468 22.9804H46.8978V20.7757C46.8978 19.6337 45.9688 18.7047 44.8268 18.7047H30.79L39.32 15.2927C39.8339 15.0872 40.0838 14.504 39.8783 13.9901C39.6727 13.4764 39.0899 13.2262 38.5756 13.4319L31.5914 16.2255C33.7196 14.86 35.8253 13.3571 36.6269 12.3061C38.1875 10.26 37.7922 7.32574 35.7461 5.76511C33.7 4.20436 30.7658 4.59974 29.2051 6.64586C28.0649 8.14111 26.5604 12.3425 25.5866 15.3031C24.6129 12.3427 23.1084 8.14111 21.9681 6.64586C20.4076 4.59974 17.4732 4.20461 15.4271 5.76511C13.381 7.32561 12.9859 10.2599 14.5464 12.3061C15.348 13.3572 17.4535 14.86 19.5819 16.2255L12.5976 13.4319C12.0835 13.226 11.5005 13.4762 11.295 13.9901C11.0894 14.504 11.3394 15.0872 11.8532 15.2927L20.3832 18.7047H6.3465C5.2045 18.7047 4.2755 19.6337 4.2755 20.7757V38.947C4.2755 39.5004 4.72412 39.9491 5.27763 39.9491C5.831 39.9491 6.27975 39.5005 6.27975 38.947V20.7757C6.27975 20.7389 6.30963 20.709 6.3465 20.709H44.8266C44.8635 20.709 44.8934 20.7389 44.8934 20.7757V38.9472C44.8934 39.5006 45.342 39.9494 45.8955 39.9494C46.4489 39.9494 46.8976 39.5007 46.8976 38.9472V37.8112H58.7184C58.7195 37.8112 58.7204 37.8115 58.7215 37.8115C58.7226 37.8115 58.7236 37.8114 58.7248 37.8114C60.1792 37.8125 61.4142 38.7672 61.8382 40.0827H58.7223C58.1689 40.0827 57.7201 40.5314 57.7201 41.0849V43.2226C57.7201 44.954 59.1286 46.3625 60.86 46.3625H61.9958V50.7716H59.3755C58.5148 48.2864 56.1521 46.496 53.3778 46.496C50.6034 46.496 48.2406 48.2862 47.38 50.7716H46.8975V43.2225C46.8975 42.6691 46.4489 42.2204 45.8954 42.2204C45.342 42.2204 44.8932 42.669 44.8932 43.2225V50.7715H24.1021C23.2414 48.2862 20.8787 46.4959 18.1044 46.4959C15.33 46.4959 12.9672 48.2861 12.1066 50.7715H6.3465C6.30963 50.7715 6.27975 50.7416 6.27975 50.7047V48.5001H10.6221C11.1755 48.5001 11.6243 48.0515 11.6243 47.498C11.6243 46.9445 11.1756 46.4959 10.6221 46.4959H1.00213C0.44875 46.4959 0 46.9445 0 47.498C0 48.0515 0.448625 48.5001 1.00213 48.5001H4.27563V50.7047C4.27563 51.8467 5.20463 52.7757 6.34662 52.7757H11.7596C11.7594 52.798 11.7579 52.8201 11.7579 52.8425C11.7579 56.3419 14.605 59.189 18.1044 59.189C21.6038 59.189 24.4509 56.3419 24.4509 52.8425C24.4509 52.82 24.4494 52.798 24.4491 52.7757H47.0329C47.0326 52.798 47.0311 52.8201 47.0311 52.8425C47.0311 56.3419 49.8783 59.189 53.3776 59.189C56.877 59.189 59.7241 56.3419 59.7241 52.8425C59.7241 52.82 59.7226 52.798 59.7224 52.7757H62.9977C63.5511 52.7757 63.9999 52.3271 63.9999 51.7736V41.0847C64 38.4455 62.0529 36.2527 59.5197 35.8672ZM21.6125 15.1324C17.6596 12.676 16.4871 11.5459 16.14 11.0906C15.2496 9.92324 15.4751 8.24911 16.6426 7.35874C17.1239 6.99174 17.6911 6.81436 18.2542 6.81436C19.057 6.81436 19.8512 7.17511 20.3746 7.86136C21.344 9.13236 22.8621 13.4102 23.8644 16.4929C23.188 16.0946 22.4105 15.6285 21.6125 15.1324ZM27.3091 16.4927C28.3114 13.4102 29.8295 9.13249 30.7987 7.86124C31.6891 6.69386 33.3633 6.46849 34.5306 7.35874C35.6981 8.24911 35.9235 9.92324 35.0332 11.0906C34.6861 11.5457 33.5136 12.676 29.561 15.1322C28.7631 15.6282 27.9856 16.0945 27.3091 16.4927ZM46.8978 24.9844H54.4468C55.6624 24.9844 56.6514 25.9734 56.6514 27.189V27.2557H46.8978V24.9844ZM46.8978 35.807V29.26H55.8021L57.4389 35.807H46.8978ZM18.1044 57.1849C15.71 57.1849 13.762 55.2369 13.762 52.8425C13.762 50.4481 15.71 48.5001 18.1044 48.5001C20.4988 48.5001 22.4468 50.4481 22.4468 52.8425C22.4468 55.2369 20.4988 57.1849 18.1044 57.1849ZM53.3779 57.1849C50.9835 57.1849 49.0355 55.2369 49.0355 52.8425C49.0355 50.4481 50.9835 48.5001 53.3779 48.5001C55.7723 48.5001 57.7202 50.4481 57.7202 52.8425C57.7202 55.2369 55.7723 57.1849 53.3779 57.1849ZM61.9959 44.3581H60.8601C60.2339 44.3581 59.7244 43.8486 59.7244 43.2224V42.0866H61.9958L61.9959 44.3581Z" fill="#785D4C"/>
<path d="M18.1044 50.7715C16.9624 50.7715 16.0334 51.7005 16.0334 52.8425C16.0334 53.9845 16.9624 54.9135 18.1044 54.9135C19.2464 54.9135 20.1754 53.9845 20.1754 52.8425C20.1754 51.7005 19.2464 50.7715 18.1044 50.7715Z" fill="#785D4C"/>
<path d="M53.3779 50.7715C52.2359 50.7715 51.3069 51.7005 51.3069 52.8425C51.3069 53.9845 52.2359 54.9135 53.3779 54.9135C54.5199 54.9135 55.4489 53.9845 55.4489 52.8425C55.4489 51.7005 54.5199 50.7715 53.3779 50.7715Z" fill="#785D4C"/>
<path d="M41.62 46.4959H26.6555C26.1021 46.4959 25.6534 46.9445 25.6534 47.498C25.6534 48.0515 26.102 48.5001 26.6555 48.5001H41.62C42.1734 48.5001 42.6221 48.0515 42.6221 47.498C42.6221 46.9445 42.1735 46.4959 41.62 46.4959Z" fill="#785D4C"/>
<path d="M15.9666 42.2204H3.13987C2.5865 42.2204 2.13775 42.669 2.13775 43.2225C2.13775 43.776 2.58637 44.2246 3.13987 44.2246H15.9666C16.52 44.2246 16.9688 43.776 16.9688 43.2225C16.9688 42.669 16.52 42.2204 15.9666 42.2204Z" fill="#785D4C"/>
<path d="M15.9666 27.2557H11.691C11.1376 27.2557 10.6889 27.7044 10.6889 28.2579V36.809C10.6889 37.3624 11.1375 37.8111 11.691 37.8111C12.2445 37.8111 12.6931 37.3625 12.6931 36.809V33.5355H14.8978C15.4511 33.5355 15.8999 33.0869 15.8999 32.5334C15.8999 31.9799 15.4513 31.5312 14.8978 31.5312H12.6931V29.26H15.9666C16.52 29.26 16.9688 28.8114 16.9688 28.2579C16.9686 27.7045 16.52 27.2557 15.9666 27.2557Z" fill="#785D4C"/>
<path d="M23.8528 34.0054C24.8556 33.3485 25.5199 32.2157 25.5199 30.9301C25.5199 28.904 23.8716 27.2557 21.8455 27.2557H19.1733C18.6199 27.2557 18.1711 27.7044 18.1711 28.2579V36.809C18.1711 37.3624 18.6198 37.8111 19.1733 37.8111C19.7267 37.8111 20.1754 37.3625 20.1754 36.809V34.6044H21.8436L23.6839 37.3647C23.877 37.6544 24.1946 37.8111 24.5185 37.8111C24.7096 37.8111 24.9026 37.7566 25.0734 37.6426C25.534 37.3357 25.6584 36.7135 25.3512 36.2531L23.8528 34.0054ZM21.8455 32.6002H20.1754V29.26H21.8455C22.7665 29.26 23.5156 30.0091 23.5156 30.9301C23.5156 31.8511 22.7665 32.6002 21.8455 32.6002Z" fill="#785D4C"/>
<path d="M32 35.807H28.7265V33.5322C28.7486 33.5337 28.7708 33.5356 28.7932 33.5356H30.931C31.4844 33.5356 31.9331 33.087 31.9331 32.5335C31.9331 31.98 31.4845 31.5314 30.931 31.5314H28.7932C28.7706 31.5314 28.7486 31.5332 28.7265 31.5347V29.26H32C32.5534 29.26 33.0021 28.8114 33.0021 28.2579C33.0021 27.7045 32.5535 27.2557 32 27.2557H27.7244C27.171 27.2557 26.7222 27.7044 26.7222 28.2579V36.809C26.7222 37.3624 27.1709 37.8111 27.7244 37.8111H32C32.5534 37.8111 33.0021 37.3625 33.0021 36.809C33.0021 36.2555 32.5534 35.807 32 35.807Z" fill="#785D4C"/>
<path d="M39.4823 35.807H36.2088V33.5356H37.3445C37.8979 33.5356 38.3466 33.087 38.3466 32.5335C38.3466 31.98 37.898 31.5314 37.3445 31.5314H36.2088V29.26H39.4823C40.0356 29.26 40.4844 28.8114 40.4844 28.2579C40.4844 27.7045 40.0358 27.2557 39.4823 27.2557H35.2066C34.6533 27.2557 34.2045 27.7044 34.2045 28.2579V36.809C34.2045 37.3624 34.6531 37.8111 35.2066 37.8111H39.4823C40.0356 37.8111 40.4844 37.3625 40.4844 36.809C40.4844 36.2555 40.0356 35.807 39.4823 35.807Z" fill="#785D4C"/>
</svg>

<svg width="64" height="64" fill="none" xmlns="http://www.w3.org/2000/svg"><path d="M59.52 35.867l-1.658-6.63a1 1 0 00.794-.979v-1.069a4.214 4.214 0 00-4.21-4.209h-7.548v-2.204a2.073 2.073 0 00-2.071-2.071H30.79l8.53-3.412a1.002 1.002 0 10-.744-1.861l-6.985 2.793c2.129-1.365 4.234-2.868 5.036-3.919a4.672 4.672 0 00-.88-6.54 4.672 4.672 0 00-6.542.88c-1.14 1.495-2.645 5.696-3.618 8.657-.974-2.96-2.479-7.162-3.619-8.657a4.672 4.672 0 00-6.54-.88 4.672 4.672 0 00-.882 6.54c.802 1.051 2.907 2.554 5.036 3.92l-6.984-2.794a1.002 1.002 0 10-.745 1.86l8.53 3.413H6.346a2.073 2.073 0 00-2.07 2.07v18.172a1.002 1.002 0 002.004 0V20.776c0-.037.03-.067.066-.067h38.48c.038 0 .067.03.067.067v18.171a1.002 1.002 0 102.005 0v-1.136h11.827a3.279 3.279 0 013.113 2.272h-3.116c-.553 0-1.002.448-1.002 1.002v2.138a3.143 3.143 0 003.14 3.14h1.136v4.409h-2.62c-.861-2.486-3.224-4.276-5.998-4.276a6.356 6.356 0 00-5.998 4.276h-.483v-7.55a1.002 1.002 0 10-2.004 0v7.55h-20.79a6.356 6.356 0 00-5.999-4.276 6.356 6.356 0 00-5.997 4.276h-5.76a.067.067 0 01-.067-.067V48.5h4.342a1.002 1.002 0 100-2.004h-9.62a1.002 1.002 0 000 2.004h3.274v2.205c0 1.142.929 2.07 2.07 2.07h5.414l-.002.068a6.353 6.353 0 006.346 6.346c3.5 0 6.347-2.847 6.347-6.346l-.002-.067h22.584l-.002.066c0 3.5 2.847 6.347 6.347 6.347a6.353 6.353 0 006.346-6.346l-.002-.067h3.276c.553 0 1.002-.449 1.002-1.002v-10.69a5.286 5.286 0 00-4.48-5.217zM21.612 15.132c-3.952-2.456-5.125-3.586-5.472-4.041a2.666 2.666 0 01.503-3.732 2.65 2.65 0 011.611-.545 2.66 2.66 0 012.12 1.047c.97 1.271 2.488 5.55 3.49 8.632a110.59 110.59 0 01-2.252-1.36zm5.697 1.36c1.002-3.082 2.52-7.36 3.49-8.63a2.666 2.666 0 013.732-.503 2.666 2.666 0 01.502 3.732c-.347.455-1.52 1.585-5.472 4.041-.798.496-1.575.963-2.252 1.36zm19.589 8.492h7.549c1.215 0 2.204.99 2.204 2.205v.067h-9.753v-2.272zm0 10.823V29.26h8.904l1.637 6.547H46.898zM18.104 57.185a4.347 4.347 0 01-4.342-4.343 4.347 4.347 0 014.342-4.342 4.347 4.347 0 014.343 4.343 4.347 4.347 0 01-4.343 4.342zm35.274 0a4.347 4.347 0 01-4.343-4.343 4.347 4.347 0 014.343-4.342 4.347 4.347 0 014.342 4.343 4.347 4.347 0 01-4.342 4.342zm8.618-12.827H60.86c-.626 0-1.136-.51-1.136-1.136v-1.135h2.272v2.271z" fill="#785D4C"/><path d="M18.104 50.772a2.073 2.073 0 00-2.07 2.07c0 1.142.928 2.072 2.07 2.072a2.073 2.073 0 002.071-2.072 2.073 2.073 0 00-2.07-2.07zm35.274 0a2.073 2.073 0 00-2.071 2.07c0 1.142.929 2.072 2.07 2.072a2.073 2.073 0 002.072-2.072 2.073 2.073 0 00-2.071-2.07zM41.62 46.496H26.656a1.002 1.002 0 100 2.004H41.62a1.002 1.002 0 100-2.004zM15.967 42.22H3.14a1.002 1.002 0 000 2.005h12.827a1.002 1.002 0 100-2.005zm0-14.964H11.69c-.553 0-1.002.448-1.002 1.002v8.551a1.002 1.002 0 102.004 0v-3.273h2.205a1.002 1.002 0 000-2.005h-2.205V29.26h3.274a1.002 1.002 0 100-2.004zm7.886 6.749a3.674 3.674 0 001.667-3.075 3.679 3.679 0 00-3.674-3.674h-2.673c-.553 0-1.002.448-1.002 1.002v8.551a1.002 1.002 0 002.004 0v-2.205h1.669l1.84 2.76a1 1 0 101.667-1.11l-1.498-2.249zM21.845 32.6h-1.67v-3.34h1.67a1.671 1.671 0 010 3.34zM32 35.807h-3.273v-2.275a.73.73 0 00.066.004h2.138a1.002 1.002 0 100-2.005h-2.138c-.022 0-.044.002-.066.004V29.26H32a1.002 1.002 0 100-2.004h-4.276c-.553 0-1.002.448-1.002 1.002v8.551c0 .553.449 1.002 1.002 1.002H32a1.002 1.002 0 100-2.004zm7.482 0H36.21v-2.271h1.135a1.002 1.002 0 100-2.005H36.21V29.26h3.273a1.002 1.002 0 000-2.004h-4.275c-.554 0-1.002.448-1.002 1.002v8.551c0 .553.448 1.002 1.002 1.002h4.275a1.002 1.002 0 000-2.004z" fill="#785D4C"/></svg>
